Numix-GalliumOS/64/actions/sidebar.svg

<?xml version="1.0" encoding="UTF-8" standalone="no"?>
<svg
   xmlns:dc="http://purl.org/dc/elements/1.1/"
   xmlns:cc="http://creativecommons.org/ns#"
   xmlns:rdf="http://www.w3.org/1999/02/22-rdf-syntax-ns#"
   xmlns:svg="http://www.w3.org/2000/svg"
   xmlns="http://www.w3.org/2000/svg"
   xmlns:sodipodi="http://sodipodi.sourceforge.net/DTD/sodipodi-0.dtd"
   xmlns:inkscape="http://www.inkscape.org/namespaces/inkscape"
   width="64"
   height="64"
   viewBox="0 0 64 64"
   id="svg2"
   version="1.1"
   inkscape:version="0.91 r13725"
   sodipodi:docname="sidebar.svg">
  <metadata
     id="metadata12">
    <rdf:RDF>
      <cc:Work
         rdf:about="">
        <dc:format>image/svg+xml</dc:format>
        <dc:type
           rdf:resource="http://purl.org/dc/dcmitype/StillImage" />
        <dc:title></dc:title>
      </cc:Work>
    </rdf:RDF>
  </metadata>
  <defs
     id="defs10" />
  <sodipodi:namedview
     pagecolor="#ffffff"
     bordercolor="#666666"
     borderopacity="1"
     objecttolerance="10"
     gridtolerance="10"
     guidetolerance="10"
     inkscape:pageopacity="0"
     inkscape:pageshadow="2"
     inkscape:window-width="1366"
     inkscape:window-height="704"
     id="namedview8"
     showgrid="false"
     inkscape:zoom="1"
     inkscape:cx="35.240262"
     inkscape:cy="22.079693"
     inkscape:window-x="0"
     inkscape:window-y="27"
     inkscape:window-maximized="1"
     inkscape:current-layer="svg2">
    <inkscape:grid
       type="xygrid"
       id="grid4179" />
  </sodipodi:namedview>
  <path
     style="fill:#888888;fill-opacity:1"
     d="M 4.1484375,4.9998672 C 2.9765643,5.1169471 1.992188,6.2156993 2,7.3943984 L 2,56.605469 C 2,57.862226 3.1406244,59 4.3984375,59 L 59.601562,59 C 60.859372,59 62,57.862226 62,56.605469 L 62,7.3943984 C 62,6.1376354 60.859371,4.9998672 59.601562,4.9998672 Z M 57,8.0001328 c 1.10457,-8e-7 2.000001,0.8954302 2,2.0000002 10e-7,1.10457 -0.89543,2.000001 -2,2 -1.10457,10e-7 -2.000001,-0.89543 -2,-2 -10e-7,-1.10457 0.89543,-2.000001 2,-2.0000002 z m -52,7.0000002 54,0 L 59,56 5,56 Z"
     id="path4-4"
     inkscape:connector-curvature="0"
     sodipodi:nodetypes="ccsssssscsssssccccc" />
  <rect
     style="opacity:1;fill:#268bd2;fill-opacity:1;stroke:none;stroke-width:4;stroke-linecap:round;stroke-linejoin:round;stroke-miterlimit:4;stroke-dasharray:none;stroke-opacity:1"
     id="rect4134"
     width="15.999976"
     height="35"
     x="40"
     y="18" />
</svg>

<svg xmlns="http://www.w3.org/2000/svg" viewBox="0 0 64 64">
 <path d="m 4.148 5 c -1.172 0.117 -2.156 1.216 -2.148 2.395 l 0 49.21 c 0 1.257 1.141 2.395 2.398 2.395 l 55.2 0 c 1.258 0 2.398 -1.138 2.398 -2.395 l 0 -49.21 c 0 -1.257 -1.141 -2.395 -2.398 -2.395 m -2.602 3 c 1.105 0 2 0.895 2 2 0 1.105 -0.895 2 -2 2 -1.105 0 -2 -0.895 -2 -2 0 -1.105 0.895 -2 2 -2 z m -52 7 54 0 l 0 41 -54 0" style="fill:#888;fill-opacity:1"/>
 <rect width="16" height="35" x="40" y="18" style="fill:#268bd2;opacity:1;fill-opacity:1;stroke:none"/>
</svg>
